-----BEGIN PGP PUBLIC KEY BLOCK-----

mQINBGU6oTcBEACZO5Qh/GckbxIUdiG3X3/qa3iDYYcF3RXlg+krNroJoZOTgiRN
jJYj9p3ksOMQ45JCzb166e+Yn1qZtYANKyr98ICVTyfZvlu6bT0wEm4UkKcEeLXZ
XaRjWrM1uO/ZTtG6liXcEbXVpdeB14LZotwaeb1nFziTLVChQ0oiLBoCLTJxFESL
THtmYyfmzI1aMx3pK9oDaijMOu7Pvgec6XCsc7/6EmakTvhCQbcL16ueBzVY4DNU
z+jNLeGBnamJB7Ao+XkE1ZgyVO/TEuMuH7cu1Y6mApanAxy9FI6gEMca9YRABrXy
ww/CIorRlCdDbnzAChe964HZxZ0z0MYsniSTTnZgRlnLzomQf32EXMnpscwUn3Jw
bP/kTUNNBeogoFMWyIHHpToHdmKsR67iaRvh3cm7A/QsTnRS/CrTA9UpeCi/aqRX
Yk+94VKsEDQZyokM7QHun7qBm5N3jLa1ciY1ZUGTeoky43NThqh8GfhYWSdH1gJh
et6oEcAY+dNCRZzl10QGloSxgd9oeNT9P+K1pbwZjVbLC+bMtuWG4I94wtgrvJP0
+fHT8mnfUiivPZxGed5p5KfCyep4S9w4CWBLpyk/4CaE+OoUQIN2oPaOJTgGtWRC
cgvkIioSLtG7pMwy1nhoV6NQt2V/cTX4seDMsH+yps1CqK/py08+Q88rIQARAQAB
tBxBbnRvbiBCdWxha2ggPGhpbUBuZWNhdXEudWE+iQJUBBMBCAA+AhsBBQsJCAcC
AiICBhUKCQgLAgQWAgMBAh4HAheAFiEEKVEcBnVcIRuz00GTQpl2NaVLpVsFAmU6
rUICGQEACgkQQpl2NaVLpVv1PRAAjJKOmn/nK+IRmtwPAYZc8HTV9jUAawaqkfe0
3rx2RCCD1TUhMAJOmUYjEBFooRjk4fpfXZqR0lvQR28/npi5olNcE6jV5J9XtPSS
eJuh4ueEdx4RLLTbG4Efi05flXPsQH9vazaDR4ReSTQ2SRq1rblv3T8aAV96eHtJ
JhSvvBp7xCUriBktD33di4FlgelJ9fMuoe+d7NR7n3swopSUiWnIYkMKJR4m+pbR
qug0tId5hndo7jfnGnxK+jdUn/1lKxbmeDGmAh6w15jfBNqr0VJrpNEZWQEjv3Cd
jcokz2Fxv3YTiXc4b/5LhonkPDoQhFFdsd4+fqYWfjuyoJmfW7Nd1Bab4ZD8O1o9
qnFOUK7zZxCAHXe728aiVV4i4hApe/Wy/WHOELkGQwLQrZZPou7DMJs/j7rjjVTJ
dx7FBMRlVRoQLaaHmWjlBwq9TTL+T2+0QUopui6SqztBYW+hXZzfjClWEgOcVGS+
nwUwTnaM1xX63j+IN/qKcn0JFzmRWkoyeMGXbYyC3Kc4MLF5eFLyPzafWiHFzxtG
VVaFQWacoL6mGw9onD9WrZLFKs2oh2R0FBu45Vvbutco6GkSUigwR3aQhE1bY5i1
9TgKGgwQK4MHnj0gC/x0OHO87zu/av4l1dXvCG4gOzcOgttq0W1NTZrsmDXhhOUS
6OBlnVG0IUFudG9uIEJ1bGFraCA8bmVjYXVxdWFAZ21haWwuY29tPokCUQQTAQgA
OxYhBClRHAZ1XCEbs9NBk0KZdjWlS6VbBQJlOqJkAhsBBQsJCAcCAiICBhUKCQgL
AgQWAgMBAh4HAheAAAoJEEKZdjWlS6VblH4QAIO3nYfsonV+DLySZaGdPzA2GAMP
FlSGjOjF4GUAsvUXpRaoWPGTq8sBQjFwU0ZtFn42wNtziX2xUKRcS+wMhIA9/or/
vLmVCWJERvBw8Ofdsqc0W4FuO3/tZzcr2Mls0WgWHBGfuNiqIyOiSBlPUpS5iGil
LjzAjur/AxV0mbctdOH0g52CqZwuZQTOoTCy+UngBHuFKvo5GQdlwZItnZbWLDQ/
TA4CIUDU+j+ZNsYnXEs2D1oEl80HpvKRinGdV+woXv7MafsuItOOMubOScm1alig
/J7WWHW2r5CKKtF1bQpGOzPb4AgMWsQPwfxFZunTGVyX3QZXMKRTPNPDz3AzgM05
MWI8mBiu4qKsT+LznB6q/78N4P2OQtMLEY9sYt5ADJrxHlreizkaPBHXQ+d+UwVJ
X4yD1gCmywCbptDrfqVlXWJpXACyPpureQRFUg1MhXCCRUet9lNv2kNlSLKvQ29t
eoOFCLoCH2emqOKsJnQ3HfHLYXgJnitqChVBWxayTj6ludNLwcf5+4g/dHnaaSBF
mWRISOixaVdBC+Z/5shkyo5YFBmK/N68csrVibaUs8P4tRFKmNk8g8bOMUmJ9yGf
qdAc4kIdXwm7zcLCDEoKQl2Mn6GdVWz85MyVabEzbXyr+sNPZQQaEV1lHzJWjOYb
IDxevfV0sJbHiamMtCBBbnRvbiBCdWxha2ggPHNlbGZAbmVjYXVxdWEuZGV2PokC
UQQTAQgAOxYhBClRHAZ1XCEbs9NBk0KZdjWlS6VbBQJlOqJNAhsBBQsJCAcCAiIC
BhUKCQgLAgQWAgMBAh4HAheAAAoJEEKZdjWlS6VbglYP/jue7oqpLYGTFLO1o865
tr3MC2B5s5ana1+qZ1PYU1RBVxWMBTr1B9/H7XwU35Zj/yIHxdwNyr/sQUvn64qq
HeHoiNfeNLcSB2yBipvpL8W/9ZiZPi/RVJbjzTf/r3tp6Z/vb+f8Vh8Z+B1P1o0s
gAPl9ClFt/xlKhO0XJLT4E0viAxXhefjpy/d1Z9A9hg90O1yvALFdyrDe6imGiwW
6bBYkP7j/k6Gmh/3JukcBWLlhTDzXFzZXcX6RXJbjyqr8sFQf3DY8ERVLWW2j/0I
f5510H9PRU2ZxtjbEbVBRSuETQpP1CZf/XVeSqAH/Y0luzERo7Zd/652ommEtmom
+MUeX9Dm0j0Jnyw9Q8XCPI0/2WXquINwH964fHcKWGG9W5zSbtw8R9asXaEbWX2j
n8N2D6jUOfZM3BFCowxxI9WhEfqXyMZKRxwI1dIZtM7d7zd7JPzJ+NUmpUw8N9Ef
ywZEEUzeuSGnL1qlLG8q1iUQmSkOUAFBwrVzxd0Adv91T2v6FWMk6iinFaLt8mDX
n7KSqW76BYQ4nRlBUFI/vLbVXu2tvGs0eZ2rkIR3a8aOkHsn6unRiS/ALypQg3Bs
ME0EWPkxxhiQVDeZf6VrWgeq+0p6VfEgs717QfPzpRb2yUEEbp/Vaa9szluS6adg
vhSPc5/NV/VT5sQM+snMKLyytDVBbnRvbiBCdWxha2ggKHdvcmsgbWFpbikgPGFu
dG9uLmJ1bGFraEBpbnRlbGxpYXMuY29tPokCUQQTAQgAOxYhBClRHAZ1XCEbs9NB
k0KZdjWlS6VbBQJlPXWMAhsBBQsJCAcCAiICBhUKCQgLAgQWAgMBAh4HAheAAAoJ
EEKZdjWlS6VbcOQQAI2xnnB7ZXPMyXq82Qg+tdyY6eCnF9B8zdRTvCYR1/vE6gKJ
KorX5/pXWencfnuR6SzD0uF44+f9FX4m0aj9a9c6IX9unTbarv4E3PmiQ9vCS7g7
up3PBjQUu2hDxFC/hYx7Wt4w5p3qUuZ3Wa5Xn1lQ1EAnnL/phcFxXO98Cc1y4zGt
+WRz1b6PYx2FfPLoIr9+KOanaP9ecAFKjHztDL7dZgODhj43i7sDsp+XNXWj1l0T
sBkc0PoZDlXMy1j3zLdmrBCArCt+n2lLMEczb4H/DqmE21xw3ZENRHDZFOuVwrcw
V+Jvjb1kYrNVCQj2pxCU+mV1xkN0Fxxr8MVgfvlWQKMaYICCgOB6LGnopEMmVrb5
+PH+hnZFg7Zw0XQQg5VPMoF7+zAB8fHLhAdwvTiXfSOqcbBYltpxmCgCDS58w43R
B48aWWihuvHF/C2su58z7ep+Y8w0q21zTnVMSTgXC4cYvrUd1lAqL4kRn+ioGopc
vg6KxvO7O0IKQ6oK5sUmW+EoaCMlEwRC8AvzVZY3i2qQ4+Am5uYkHxLrVbzcZSii
QsoN9+CpYDDx0snlFkwBoTz4ZD3A397k4G8uKODIyJjWo413e+u10dabREB718TS
dFlXj7bRzkaMttqLg1j8GQu3XLiU9HiEUJzVNk4BTwt6iu7A3WUGl1+ugd2DtDhB
bnRvbiBCdWxha2ggKHdvcmsgY29udHJhY3QpIDxleHQtYW50b24uYnVsYWtoQGhl
cmUuY29tPokCUQQTAQgAOxYhBClRHAZ1XCEbs9NBk0KZdjWlS6VbBQJlPXWdAhsB
BQsJCAcCAiICBhUKCQgLAgQWAgMBAh4HAheAAAoJEEKZdjWlS6VbbGsP/0/YL3N8
7a2Lb+ZT0Vs4vsd3MFr4ZlMgKKxJpV6xCPrcM5oGlBr8HbgqpNXgFVtykAqe9JDE
bMobOtA1PEdkI2dQa82IXXDVYIIV5tkVza7gpGUT8moa9thvBtlxDiYR4YKS6Txx
bIyjr/ub8TalYIEOijVeZS8f6NSfuMn7+qH1Zmxw86dkDBjpXdl8it4q7TtbRhfZ
wrbciHwQ6YfTP0xIHyxBXyw6AP/i1PAUSIOMsxaOww2jgjCyCPaG9c6akI6RYLIZ
kasJFk1i6DtOtzTQAc1TxE9XwyoBp3566NHCqeb5nUSUfR3uprtNEEYBcGN09Has
kUJWDGQfGcMAVi0vym9tVovA/Se/PuzjJApUOzTXaKV/n5ICJ3p/UdaAbz+s0XF8
UGTep34fsUx310v0MoNjzQH9xDqcPkAGcwxOfuCxCIdnaqStDhJs+LGZiJ/+SiVE
SdTISozowKV+Vu4qhqPMkdvFKWs/6FYT01RTdAtlHDb5v7pWVJ0Falo1ddMVwY7r
hZAa9eBRw1Z4Qi/p0sRv96oydihiRuIuY8G5jrUnCOjGIdAbZRdGrwL4Qrbkwy2s
+kPk7JcV2Pr0ylDlxovb+VXGmoJTRzQtioePkutVNnRx9xFY+hW+GkJHJG7KeaxC
U9eBBXVwEK7qYKknnV78r43zW9jH+JLDfV+buDgEZTqsfRIKKwYBBAGXVQEFAQEH
QNGcsU4i6EMxkge6O92Np4ajbtecXR3ZylxPsjLJPO4+AwEIB4kCNgQYAQgAIBYh
BClRHAZ1XCEbs9NBk0KZdjWlS6VbBQJlOqx9AhsMAAoJEEKZdjWlS6VberkP/2Nj
Qe8yeozp9B+9EFwLGY4GM21uZ8kaHERIVdt5gDNsNro85k5lc/aF1+tfHBraPTBW
EvT7OOHCijd1fCQsYcWAMRXQVYEMOnUtv82wF9/4vKQea0+iHtQMF6ugLNLy7/IK
xrBvXH36AjteFhYXxncS21h4MOhaOjzN0cwLskfoGrQk3fHc9XxZJE+vAN/a24a2
jlqm2sV6YADFBGxdug5zoNh8UUVYYsLAN+fAKAQIzDPgK9tMcrqYn0bjs5ktXuER
H7v4iRLLP3tMQHxtF1Tb/03478X4/M7Tl2Fhaj8cNSs0ke8bY7xOKawkyMj1qdWO
eXm+YtQn691tZAaxvV3ITC29tBI0m/KNCZKV1L5NLiGiHRPU1MWg1W07MP7IGbmj
jrpQX7m9lF1cIB1WOaEZi3N2EEeovwyPFUHvGpPcTriMskK4Tf0p1o7fHO09F6Iq
XK4vowJh0MSEFILkW86XPIJiY/bZkizd2X9ZH9/Aq0zIthqfRtDvZSfRpUsDHsBD
JMu+zWZdFhZDLs+Uw0gZG3ud0pgG2miPlvCTV8RQx6KU42BF6JaObM1QrfTXT0F5
06su7AxjtBUUlLtXtBELhHxGb6TIzLIuk2MWos91RLWUoe/QVj97E+7tO0YVDDxj
FdiH87pyun7tedqVp9oqF6diYDTDZzfmpvb+qOgyiQI8BBgBCAAmAhsMFiEEKVEc
BnVcIRuz00GTQpl2NaVLpVsFAmU9bxgFCQHJkUQACgkQQpl2NaVLpVv6Yw/8CqfH
58xvnFm70QOTCW7Rt7Sa1jl1S+r+c5FOA81Pf5Q7BZYAyBvDDuK6bf2ZHTW6TfWo
g8Toqns7a2w/IgDk47i2pMPPZ2J3HGpFuBy3LUZPVIxiN+E2G1yEBOGWkA4kS2SG
D8zF4BDXNfKIDhxpGhGJYh2Yd1ILQEjYmOclG2Lj0xa6gNn3HNfMP9ZEXKkx5m7Z
PCHKNx1CgY4k/eMjQwnXBLv33j/NC+e/CiWc1ZyJUFFMUkiQ5zdb9nQ1kUd18h3U
jtogyYVhFL1h90RpSV/nwZnviAJbMJKFO1zPDPYnkhLC1K1vrqAlgOmHDr2fb9jS
3NxgnhcnuixSTJNMILPpuwIQYKF5A3VHnVfuHpwwsQt2DiQ8uXaQW4jXvIJhV2nd
Bp04AG0JeSGDP7AKlcLLRjBVJdXRgOHs+7KBLfRliSRpf8/1/0QqtQ4V1GQmb6gN
UgGZqKBEWfz0MoB8MM88IiXJNId7E2r7/8F8Yefs3Z4+EBfV1/0P3qubsZFkur/H
NTKZ4Qm68amFNb4VN409jGBUwjps9MV445wTVI3CdDJzE3Pjb/7MljehOVLU0L3L
eI0UYhlp0mIm62J+runqpsLVUsU9v96yR77RdCOWKED/GIHnL+MzWbVECG9wYd2n
u2Q1Ng1fRCZwEksszS8PHCSx7PEgdj56r2EiXZ64MwRlOqzpFgkrBgEEAdpHDwEB
B0B/8/pDFyrRlhQCXFFIMaITzCqSZLVgjiwVuXsylB6t2okCrQQYAQgAIBYhBClR
HAZ1XCEbs9NBk0KZdjWlS6VbBQJlOqzpAhsCAIEJEEKZdjWlS6VbdiAEGRYKAB0W
IQQs238pU7eC/ROoPJ0HH+PjJN1zMwUCZTqs6QAKCRAHH+PjJN1zM7nTAQC4jSVx
S/P7iGtU3jdgFNN9IdK7BxZrxkqgH75aAHXTAQD/XSX9KADCuONCOr9/dXF7TBK+
6TNfdKIWrqF8XvDjTAHBmQ/8Doiz75bCVKfcTGsY94+7RNyr9gnLOsKXdNknWpJQ
ZI/XKtpe8+QiUEnwCtMUVLL6XsF04hB7kbYIRMyzC0zCrbfVU6LATiskWkiEzICI
gBhcJOETPkZni6RI7HMHbldA2Hgp3TETY1HGqwDLXVV7wwIPOU8X2skNJ3pMv7mT
UTQDm9qhdOcuz8pFbY/Hls4Upf13zTlCQrOH39Pfi8O80v6U3E0W0HHIWkg1Os4j
NO23FZk3QGBTxarGVgiPItSckG/turluk5G/ZnbcLJmHUydRN2OS+QRJkP+MXFsQ
8Cp7wGOIX85BwNqhn3kvjOEMrh8E1OAIsbXot2rrSZiViXQ+LvuZ6FmoXnkyB/N7
8Mu1Ee8XUycnUVWJ5VvQfS4KjjkZMZPbwlpUsrJhiBPEYOp1FifUqJIlOtqIAYsA
6xxmTKjhk5xyT5Cza+rIyDw6slGjEX52ouUvw4nIVydEpmz1oO2XKR076q/2A8c/
s5WOOI+X4XWk2Xp9Ke0RPVHGL31NXeuyCDSoeLqtxr8xCJE9I1kKf5fTe1owCR10
XVJj+IlhPLoUk1cXFfsKE8YBJ/KCymP2semT38LtqYTIDMMIqJ9gvd0Yn2vytccV
BtT6QCBa0dpjZY5BmpPqV2UwK20d92U4GTlhY34yQlaFV7Au3zxRLfP9+uEiOjEi
6oWJArMEGAEIACYCGwIWIQQpURwGdVwhG7PTQZNCmXY1pUulWwUCZT1vGAUJAcmQ
2ACBdiAEGRYKAB0WIQQs238pU7eC/ROoPJ0HH+PjJN1zMwUCZTqs6QAKCRAHH+Pj
JN1zM7nTAQC4jSVxS/P7iGtU3jdgFNN9IdK7BxZrxkqgH75aAHXTAQD/XSX9KADC
uONCOr9/dXF7TBK+6TNfdKIWrqF8XvDjTAEJEEKZdjWlS6VbJnMP/jLwVKQMTuBa
p+VUMM1rqlmEwS4M5F/A951OohdAHi6qxWCCy2LoZwHKjK69tVJO/qG9S9xuWzJi
jBkrP2OPdeaFVqQGbW2YeESBt6poMcEtuEwiowZwzvVppb7y4kQCVpcdW17IweYh
+Xm+M4K6U9DkuDfuDAu7DOIT/NGdWu1ddZCmvRSF8Zt4gKSgKIX2kRMda+rIwze6
u1lKhal/+jNxhYPp+Joz8H7Humg5Zb6d2VN3WbMM4+/ijXRxzo/vliFY1e7EtSuR
DUpKtEdqBkP/72cZPMxSrHKTzjG9lUBbgS9BYrhUXXTmU7oPXbMKzM9gIkaeIKwf
Bg9/rd4kGjzCurVmCkWh9MTFyt2ymyVbvbYFXONFxrw0SsjuE1aI84wEk0arb8A1
GIVnt1iDmhK8+h8+xyT774auyzJbQpOknK4qXNeyn1XPUDXqWX0p8ZipkF3Gnpe+
rC1V7ypGzgHyoPyJWZRAFxxNH19zY3mQn4g6pyXo/Hj0nN0K32Xc5s5e94IiDEf0
MFKLObxqwNKdXUgzbdin34IOJ2iwLC/yXz1U+m4VuT/HA64rso0LsWWdOZHx6vG1
AF9nbAUxzj+0MmOt9+MQumM7s6wNiiTy+gyyWdWCIpqyVXSTeNyKbxzUWePM3B6s
cYwKFfYGSNqs1OlhgfwOi+yWZjqDjFgGuDMEZTqtxhYJKwYBBAHaRw8BAQdAvShq
ONjHSe3sDbMFaOdzmDFOzWcFwYe4Y3KnQCXmsDOJAjYEGAEIACAWIQQpURwGdVwh
G7PTQZNCmXY1pUulWwUCZTqtxgIbIAAKCRBCmXY1pUulW41HD/42I+dvnF7NpgTJ
i0bCB7Hvx8W43dhL66wTn8yCLS2RN61z3dwn1YqCpLlL36mkVD+ivjD28DxuSwKs
t0/hbe8k6UZNNCroIdAla/D1PDvkPZnyvnozLwf4Y/c82ZWV3UtlKme9IbZGJqCf
IBRvMwTThWUv3wtSTQDYEUGoCmd3AJCUH3Q1MxEmEDjecvsw70S70sNs0O5kPe0a
DGENLC2rLWcLFXX4QQqDXQfMNkqnNuK67uoU4KAhNrZ4B68zd2Gpm84lJosW6KGJ
lF9y5yoDPPZUujze/+LCPRia8CveF9VeKx+vHQkQZoyKLIk3FXubp4XLkMgBCTBb
XkIhsTAYtXhr9+LTDEDZgNAKMMOnWUqb7m3o2mc7Xq7lqTXXvya0Zoq6PIfBtN2u
vOi7xN7GK2evzXRVmnp7mjbXuGWMEYStTXx79923MyH9AU1yjkA9AQqIAhJ3YIKC
kmKS7kBy+5bWKd0po1IgsbyXPYsPjap8ZQhUnINW2zq7hacED7JB1wsyNnGJZaBb
GSMP3AqlhILys06uSZv80EDq6sFdLQNbSUuhni2aTLvPgNADy29CJVhe/1cqmqw5
k01rpKpVWSJYOyZDXYUAmTgjD0LPdW4ChUYBvJff9wT4Myl3930nusLCafRlahD/
AhHQC5XS/LfwWwp3MlEhzOOYZYqtP4kCPAQYAQgAJgIbIBYhBClRHAZ1XCEbs9NB
k0KZdjWlS6VbBQJlPW8YBQkByY/7AAoJEEKZdjWlS6VbCPoP/1EKCXW61ZfUfN0u
gRBhoLwQGohnAImDlQLqmKgBZM0u5zZKlIMiS85na1euFjEqW0B0UaCglvWWB8LS
SrXPM2xArQTzx0kELEmAiz7hDaSZksvgqAj1a3dZE4dZ5Peue28iM5oyXEgdaB21
QKniHER0n7k5zBgdE9MilK3XCmYHlxglL38HpUUoQdkzbbD+lL8GBvWID7GxtRbG
iKvHdhoJmtevq1AurjIG0SCBA0ekE86JRAsCpGdp/u7w9Ef+QzXryo/BIarb2Uyp
+utLZKJ0/LHuuTIp2YsngT8IRbbSZYkOCTQbI3xJ8CxVmkqH9DtukiWngj5ZYn9G
V9rIDN5rEf1ht0yaTuAwdjFdPGSmiDO5nvvhuxYVpmMkHfqW0LHLsW5b9KzB8sWv
Jed93f1XyRAi+wNZcRUxtXUjekIspIBJ+A+iNieyowDoj6yskdETQH1m0qyFdf+H
XPp1k5IRTMPjTlAtflzL9n7w4uKNvbzg+t9XE04zJMORUh9mINR0UNuTUQiGH5qt
KzO+WsfwXiByR9Kcf9dPyqLaXIBMlR1eDtHrN7wrhGtQPtkWpuJmVcOQDjCfw7Ji
Adz9+R9MYsOcljIX0eTKNEJzLHMDO8gtT/s4lP/eDVozWANSpsQltqKYgjmfCU5h
Spm7p5zr7J21TRYfmx9h2I7A4G3muQINBFscYQkBEADLAA72/w9lRweTttR/EccZ
G07BpsZRgVmLtZXX1MeehDXVyex7YnDi+uHlNshaTKDtJuZX4CVGnIsNAE85vUSN
gt4FNbZXOD/Cw+zt5lA9YtBQcV0p1GwfXJ5qs9ai7I2IBdrCaKMCobcYBRO/YHKw
hJn2f6wkqo7ocyg/pnJ++bkPTkMG+r7vads9NgpRrwjze8akhZMn5JQtgwWcWTU1
rdCgkL92kpA3l/YCQt16M03pqxtXxZsbZGqlwULonCBM1rRB32GBBxMIF5TAi4lX
dARo1Bde4A/eUqVzgth5SDeNLXoeO51ymK/FjYr+d2PODU7HU6jFXJe5koyYnswx
LPEyp0rw65DFjXhV/PWsJVUgpdl/8UsEmF+RSj5iwXWnOqV5MHJYGQl+gfYp7i0z
ySfsG+3TxyTofI+kMOoj0uTXzATsrisG4qp0Jj930mszYVfDQbHgRVBFyp+ou4uM
GIkMR2dgR53j+21vESsxlLLGArYJ1krxohumCxNfbYPfbdGf+8eNBavZPDYk/UKr
AMf//Mkf962b9y8HKteb/5rrT1YUFhS61as+rhbKRB4hGdztvMxFENgk/T5mFAX/
RvY9QMgQTdSOtMeu8UNqpoCgsNBJ32pWbDN9ILOF7VwjKaJ364s58KQOcaMIqoUV
ut3OAMcTfSja0mpbcDQebwARAQABiQRpBBgBCAAnAxsCBBYhBClRHAZ1XCEbs9NB
k0KZdjWlS6VbBQJlOu4nBQkKHmQ3AjbBaiAEGQEIAB0WIQRpbxQpnDke69sYJKHW
Znma/9hQKgUCWxxhCQAAYREP/1FuQ08PV8rAhpayB0hyH5BKh5cJCVLrkOd3yN1X
rhkRWdQkxdNffWnGz2Dwp23PcNy9TI6BTWSz/NK9YpK5uMOX6FsDGgAWEYdLyFd8
dtCcQYTSL3lhqPhT8S6xdBnisEF3aJp0y2ATePPFFraXV2N3HD0uPBKhP+pKR4ic
0b9AuDCcvOhRYcAkNG2nXxGzC5a2goN0ftAnl1jjeiuYi6tflfgwVhJSPsAAhg4U
K7SnQ1AfBKQUrGTGaIsqYWGHu2hdtw8kyQYz8tXYqfwEOuKbyewSJhkCBmFjvMDa
nUYth2iAd6bQWnL1fcLXHu2y1FOadPLZeBZjJdnl6ZI4a2JnrIG5/yZCAqHHiAIE
Y9b3etssV/HXPiG0PKNu32CHOcZk7BXn0VxmsClDTG3dyZrHHryEebwesAbYhtlA
QbpV0FA0D0pJrvpFezSiLqTciBmdWzu3NnE7/VxnklmL3d5cwCnd5MJ+dFntp3Tb
4zHL0bjWT4Jvt+t1lUjd8Z3rvHcofM2a1mZmKZVkgalRtq/gB1U2ktfhY8VHMZeJ
x8PXlCtwZw7TiLgYOqMPoo+dKhuxwj9yU9fRs4NpRKyLwm2R1hoPzcGvm9c7Oe4p
ukpZJsDGDtN0sbOLPfppOurb2YvuPLRHqwIBqHwL2U28HXN1LgM/LzJ2jWWct8ES
WS8JCRBCmXY1pUulWzx/D/4/YQQfX2yB6qhZO/FZBc9snj2xN+MeylZBteeDzjKv
gscCbttfCrCu1UuxoVybRrq6IYVQ5/W+pdgdz7dz3y0gxSE0ZeVE3AZXwePXI5o2
2Ycs08vo1XP/hzAZMN6q6lxHEOmMQ0yX8kL3loJ3D+ExyOYa4khNPyg9V+JvIaV/
7fhgvmvX0shGzGpJl66bI2Xg+IehJZm5AAeKUVdP0KQnb3jg0R4X87gOKd3GCIG7
FJlIWxDRDb9wgFn9cZ3FUsUNy2PRQCvrYP91wQ4FGvJzEPKqH0Z88cPEwv9J/MuQ
bKAIyWEv5ZITpLtAOaSjXa1Z7V/ReC29p9jgAdhgqTU0Onz7k1tPzfiQhYqSuw6j
O/QvWD8dUo4mWadqvkf81W4ncjj+/9Vr+g8Rr53d+/mihZWiARkYCzFnQ9b+bIO2
1bVQPT5DomA2gt1hHgRZrQoBh/4RvEESQeIltMFu+9jnvjO6MKs6pzkA1OPL38+C
8qneyXWkWuWxzQCT+b8h6xvdQ7VXX9B1ins9cT7QeBd7L94/BkjEhkbbQXeUk3xZ
wZKHYIti1Uuo6/yhL7jP2GNpmLafw8fAY4B8LIGM9sBuisaIS/eCSFbX2HhgBDWu
8TsrNXOmmmy8yjHw8QJy9a19YP/gOU3wDnDKLcUgxas07xB5mMK1wxCmmxCtCf16
CbkCDQRf/dG9ARAA3eVMpbn9MqOWUGlnPWBuJrPFzxMlot9tpsfMZ+nuXjI3B2JP
kdoNj6fBfUofcuDGCPQCLyOoDCfNMA5SI6raeLT9IniYGOw8LHH45AKifDy61qBw
0kKupN6TGHcU3dIdRVHejUkmeyVZqeMjX2ncNUJj1QoQk8OwxgYztkBGGSZAVRLy
aJKoLc5nUF9UM/JIfcmZJ9ATgL9sYYUc1XStZO3A6pytypMSFzX2qBEt4i9zwon5
D0tmykn58h62+g+QY0NGCl9MEq/l22q9Sih+gkgt6o9lylYhPvH0X15Yqkh6xa7C
Xl4EZIt3QHyUq1GtCR71FT86rjEFp41dpvkwOamLP1WRoAbUnhbnYzdVWGiDiUAl
iI5vnfEptXdGz0G6pQznK2I+lu1raj/PM93uRdGozHiv+yN2UUxksIBr97sQA0bj
snMEqEvPWdsW+oNctU1SdKh3x42pRX42fwaYUC53+2YdqKbd9njkmwEnnWIwkp4S
s0Y0ByRJUBciUEJOT5cfB8ovk9wDlMDnHJhnkzy8KIrh040/FNKCmhL5LNstw+/M
k9FsAQDLls3g1wyMuvHFJf/Ls6BydXHGCf8Lx5G2iuQSkd+2L+WdxSheZH2wGEza
rRUg/OMYDXUaolm2TRByylPf/bur3o0m2d/0TfVc3TYBkZkwUs5E+Wmu/RMAEQEA
AYkEaQQYAQgAJwMbAgQWIQQpURwGdVwhG7PTQZNCmXY1pUulWwUCZTruJwUJBTzz
gwI2wWogBBkBCAAdFiEE8GyvCjq/eUOjHCwHZvaAtfnBoPcFAl/90b0AAFdqD/96
aRE51NuCoviE/ypeBYJitrV8+R7jsM6H6OPv8WQutUD3jyTlJ1Tqq6TTifwIF4aQ
CS0MjyvUvgfUsIT0cydupT1Kvsf3n3ojXUcuyKVdXHHMDk0aUj4TNC7HJDFZo9u2
PmY8NZ8y/NXxK0a0adcbuTkGypyctkqqzyCeSSdHba+E7Z2c4aeUWy/V7Gvpk+0W
U+pyis8wPnfh1MbR9c+6f1ouVY9xJeIxqaFKJ/Jacn2wN0F7eygYevKQMUUg5m1a
FHQMCJiXYb/u/I/JaROFlD/0TfeoJUjDkZktUeAOuA1msT+cPBp3UFb9xt0zipP9
aZTzzal3i4Z4tcuI14SgLjWbftzGPiuyQ9BgO0PsrYFMua8VWvMzI0u5CUW8rYMj
nJieuYzgLGfyKKVtuGYE2q43jSR9clwqINSK/aSprGSDX4ZdLoZibFqOMzL6zmc3
MrSGmB1TLQvyEmhaLg19Nqz9q9S/GNL7nGLiiQA82hJuiZAW7L3MyHdl+e4WV4FE
b10/oAjmLZAeVNvatwy6OxkW2qKsbfYO3T+WpVKa1rCKmLfN5RMx641OZVdQHhSi
uFNiRkxYEyFn1T1HuCy7WTYN4nLc3aOAgbsLIJQC7bJEOLRHZMoPj7DrXR/bAjsW
gOEkOurA0TIl8Yo3/GZ3kPkNd1LF6BnWokAZzKWXGgkQQpl2NaVLpVtDAxAAmRZ2
MfsK2A9i37Rd9qf92KJVQcvRZOXLntEExk36cEBWy+Z2ccsrzvSw0UynbpK//Axx
uoVz5Vgfj5h7aVQWWIO8b3KEwELyhJ60eIparWr2Nr9JgkYUpzk3qwrpKt3HBNBk
IB6InN6ptgdm62ccqwJR4hqrfG12I6EvN0/iuxtmTMVpvbHByNENF7nX3XI+qQHb
I7ssBxSK1hkrMS5Ani1BU56L5Psl5HpmSkMN7H7o5L5U7/55T8nbZfUprBtAR0tp
RLAi1dEnZ02GD9dH9sVplag9ymZlHXfJRlFXjKhSXCTCGX+itkOHWj56mO44bj+J
WGjWnRCZQV6gXMSRAesyojsqnyNl2SYHj3h8r9Q4WYVOW57J/yWW2FCDE7ENRG9F
18poQTAy9mChGIY/kbyOvs/j4LoQa0F7Jlm9ocf8jehl7D40/JYr6qNFwJjFHNoE
Ps/Vq04Cw5QxTxR0uYWmpzjlZpTUwMf9ntCUb7kjjyNTiec6wbhYM/sQOIkUTS20
I0iSJAySXCZTFxSUVKr/H+ESYDLeLtxwLr1o0x0zSEbHdjXO7RgSnccVjlLO9hDX
UgOYMSJfeCrT53uM/Bgzp+2o4v+jd5R0FNU48IJbZNcCPjtc9Gl1XAiTRn8IocBv
chW5bzOc4PXMBg2/FMrPC2hpQ5ndtYzs/gOj81u5Ag0EX/3RvQEQAJ8PuCU+3hb+
bAlsNVdvvIy10NzfDUMxQzV4ZJ6tHjL4he6nhezjdnnnhmbg8E6GhsnL3mh6j4eF
7h2iSGj1tXzbybO2WirF67Od4HCamnlrGJNA9e26AlCIDdrSwulI64etY8GeawGd
NcbTv2MGx87CNt8/XqROZErq1WlXUC8KTbK+ChgeRVHIZDlNeOLDe39i8DPU0r7I
cI5RG+T30+LaNClBn3U7I4Yrn59juofJ8d8YaW7VGT10asYxb7Ub0gE/qma684Wr
MJrJ2r9L9YWgGJJeuCKwFhz3Mnjzzl5vaRt5lfTSZ3DPs0HwEpx/wnYxUz643a7/
0WaZasIAFRnELOJvm0106fW7rtudjIGTvk37OWnwm5zTWskonemWe4HcRda/dDRU
mD9TYnmQiea0MCzlnBIybmGV7zsdJJQ/1zOyNRqMJo67f2wfPzfq+IOGSqKxA4xj
EYAWjGqaF50A/axvFvC7xqEYQNhrrXoPuti/S7h6e4dVZP/M0/N5/Nq93QeNF2fj
3aL9nZ66yQH5ZiRRFykwpzpOqQzIlkkHvsfTgC0jBk8WYHRYo3a+zNezm4YLpGXN
FVRIuuoWkSOfFb10/o46qiIJkTEPI7nF5fON9U9Zzbb8wF0D6bpBq2eEYoeUlArp
J50GuhXcBia+raS9eu4C7JxGexxtdAl9ABEBAAGJAj0EGAEIACcDGwwEFiEEKVEc
BnVcIRuz00GTQpl2NaVLpVsFAmU67icFCQU884MACgkQQpl2NaVLpVtG3w/+IPd3
9ryniImFbf2WP9/d6U5JLEbJLK2SVkfyiIf+0yqOuik3JEme49Au09HLMmJH3LdO
l2XHFkETiT3su4mskjM7MqWp4L2vNfk58gHMTqNtnXw3rtg6jwNAyPuzGdHvH0RE
Xp6PnV9pKx5VdhcfH+VJuXjAH+WCQ+Q3A/EeIye7upOCsxstm2gPG29YIGsMuf49
Pff2ZCu2lpqfhmKIi6fZtGlVRlvb5vlr5WN2RqzsK1idBD5og0PisRwxpnZbNel1
Vfu/Ip2upDACixkxjQHvIhrru7kW/RjCahtNbpVYhkVpsdq0E6vlzApnKq1O8pXn
QDJbm/K0HqlSUr3DUI6df3UF6ble9lYuIzR54IKUSzBhmYg7mUoWnl3yXy1SUOPs
nK7TKB/5gPLhLoXUFFKSX5G4GdruTnoPf/F+s5HzADfzM912DIdegpomsVTJjaTX
kRBtWIdKd2pQ0zxohbDcA9JowHMva3AP1Xm/6Ba1o7UyV5dg3a9fZdzG7WNZrLL+
WwaKeRKZ4voAyfI4N26fpo1uVtB2ArgSpPyJr56vruzZ0djFBNTQ7tPocGN1LzUW
jm8AdHtjnwoTiRP3Ds0cGMlBmQbqhUWyy63yHsuLXjtWMgoRer5FDiwlNPlb0VFZ
Tz1ZnQXyXbajCwa3KMxCIOPOWXQ4Sa1ND35qNX4=
=T8dP
-----END PGP PUBLIC KEY BLOCK-----
